!!!!SEGMENT: pl-wn--mus-iii-69-834-4_zelenski-wladyslaw--piesni-z-muzyka-op-26-pytania.krn
!!!cenid: 18xx:3703
!!!COM: Żeleński, Władysław
!!!COM-rismID: pe41024455
!!!CDT: 1837/07/06-1921/01/23
!!!CNT: Polish
!!!OTL: Pieśni z muzyką op. 26/Pytania
!!!PDT:
!!!AGN:
!!!SMS-siglum: PL-Wn
!!!SMS-shelfmark: Mus.III.69.834/4
!!!SMS-shelfwork: W
!!!SMS-variant:
!!!SMS-altvar:
!!!NIFC-rismSourceID:
!!!NIFC-islandoraID:
!!!URL-pdf-islandora:
!!!URL-scan: https://polona.pl/item/z-teki-jozefa-koscielskiego-piesni-z-muzyka-wladyslawa-zelenskiego-op-26-no-4,NzA2MzkyNzQ/0/#info:metadata @EN{Scan on Polona} @PL{Skany w portalu Polona}
!!!ONB-nifc:
!!!AIN: 1 piano 1 vox
!!!key: a
**kern	**kern	**dynam	**kern	**text	**dynam
*part2	*part2	*part2	*part1	*part1	*part1
*staff3	*staff2	*	*staff1	*staff1	*
*I"Fortepian.	*I"Fortepian.	*	*I"Śpiew.	*	*
*I'pf	*I'pf	*	*I'V	*	*
*Ipiano	*Ipiano	*	*Ivox	*	*
*ICklav	*ICklav	*	*ICvox	*	*
*clefG2	*clefG2	*	*clefG2	*	*
*k[]	*k[]	*	*k[]	*	*
*a:	*a:	*	*a:	*	*
*M2/4	*M2/4	*	*M2/4	*	*
=1	=1	=1	=1	=1	=1
*Xtuplet	*	*	*	*	*
!	!	!	!LO:TX:a:t=Andantino.	!	!
8r	(<16a/LL	.	2r	.	.
.	16cc/	.	.	.	.
N[<6.A^</	16dd/	.	.	.	.
.	16ee/JJ	.	.	.	.
.	16dd/LL	.	.	.	.
.	16cc/	.	.	.	.
[>8f/	16b/	.	.	.	.
.	16a/JJ	.	.	.	.
=2	=2	=2	=2	=2	=2
*^	*	*	*	*	*
8f/L]	[2A\N]	16g/LL	<	2r	.	.
.	.	16a/	.	.	.	.
8e/	.	16b/	.	.	.	.
.	.	16cc/JJ	.	.	.	.
8d#X/	.	16b/LL	.	.	.	.
.	.	16cc/	.	.	.	.
8B/J	.	16a/	.	.	.	.
.	.	16f/JJ)	.	.	.	.
=3	=3	=3	=3	=3	=3	=3
8c 8A/]	8ryy	(<16e/LL	.	2r	.	.
.	.	16f/	.	.	.	.
*clefF4	*clefF4	*	*	*	*	*
4AA/	[<4.AA\	16g/	.	.	.	.
.	.	16a/JJ	.	.	.	.
.	.	16g/LL	[	.	.	.
.	.	16f/	.	.	.	.
[>8G/	.	16e/	.	.	.	.
.	.	16d/JJ	.	.	.	.
=4	=4	=4	=4	=4	=4	=4
8G/L]	2AA\]	16c/LL	.	2r	.	.
.	.	16B/	.	.	.	.
8F/	.	16A/	.	.	.	.
.	.	16B/JJ	.	.	.	.
8E/	.	16c/LL	>	.	.	.
.	.	16B/	.	.	.	.
8D#X/J	.	16A/	.	.	.	.
.	.	16B/JJ)	]]	.	.	.
!!LO:LB:g=original
=5	=5	=5	=5	=5	=5	=5
!	!	!	!	!LO:TX:a:i:t=dolce	!	!
(>2E/	[<2AA\	(>2c 2A/	pp	4ee\	Pły-	.
.	.	.	.	4a/	-nie,	.
=6	=6	=6	=6	=6	=6	=6
2F/)	2AA\]	2d 2B/)	.	8b\	pły-	.
.	.	.	.	8cc\	-nie	.
.	.	.	.	8dd\	rok	.
.	.	.	.	8ee\	za	.
=7	=7	=7	=7	=7	=7	=7
2E/	(<4.AA\	[>2c 2A/	.	8cc\	ro-	.
.	.	.	.	8b\	-kiem,	.
.	.	.	.	8a/	Wał	.
.	8GG\)	.	.	8b\	wśród	.
*v	*v	*	*	*	*	*
=8	=8	=8	=8	=8	=8
*	*^	*	*	*	*
(<2FF/	(>2c/]	(<4A\	.	8cc\L	wa-	.
!	!	!	!	!	!	!LO:HP:a
.	.	.	.	8dd\	.	<
.	.	4A-X\	<	8ee\J	.	.
.	.	.	[[	8ff\	-łów	[[
=9	=9	=9	=9	=9	=9	=9
!	!	!	!	!	!	!LO:HP:a
8CC/)	8e/)	16G\LL)	.	2ee\	fal;	>
.	.	16B\	.	.	.	.
8r	8r	16c\	.	.	.	.
.	.	16d\JJ	.	.	.	.
4r	4r	16c\LL	.	.	.	]
.	.	16B\	.	.	.	.
.	.	16A\	>	.	.	.
.	.	16B\JJ	]]	.	.	.
!!LO:LB:g=original
=10	=10	=10	=10	=10	=10	=10
*^	*	*	*	*	*	*
!	!	!LO:TX:b:i:t=dolce	!	!	!	!	!
4E/	[<2AA\	4c/	[<2A\	.	4ee\	Gi-	.
4G/	.	4e/	.	.	4a/	-nie,	.
=11	=11	=11	=11	=11	=11	=11	=11
4F#X/	2AA\_<	4d/	2A\_<	.	8dd\	gi-	.
.	.	.	.	.	8cc\	-nie	.
!	!	!	!	!	!LO:TX:a:i:t=con duolo	!	!
4Fn/	.	[>4a/	.	.	8b\	krok	.
!	!	!	!	!	!	!	!LO:HP:a
.	.	.	.	.	8a/	za	<
=12	=12	=12	=12	=12	=12	=12	=12
[>2E/	2AA\_<	(>4.a/]	8A\L]	.	8cc\	kro-	.
.	.	.	8B\	.	8b\	-kiem,	.
.	.	.	8c\	.	8a/	A	.
.	.	8b/)	8d\J	.	8f/	za	[[
*	*	*v	*v	*	*	*	*
=13	=13	=13	=13	=13	=13	=13
8E/L]	2AA\_	(<4cc 4e/	.	4e/	ża-	.
(>8E/	.	.	.	.	.	.
!	!	!	!	!	!	!LO:HP:a
8F#X/	.	4b 4d/	>]	8f#X/L	-lem,	>
8G#X/J	.	.	.	8g#X/J	.	]]
!!LO:LB:g=original
=14	=14	=14	=14	=14	=14	=14
8A 8AA\])	8ryy	16aLL 16c/)	.	2a/	żal.	.
.	.	(<16cc/	pp	.	.	.
4CC/	[<4.CC\	16dd/	.	.	.	.
.	.	16ee/JJ	.	.	.	.
.	.	16dd/LL	.	.	.	.
.	.	16cc/	.	.	.	.
[>8AA/	.	16b/	.	.	.	.
.	.	16a/JJ	.	.	.	.
=15	=15	=15	=15	=15	=15	=15
8AA/L]	2CC\_	16g/LL	.	2r	.	.
.	.	16a/	.	.	.	.
8GG/	.	16b/	.	.	.	.
.	.	16cc/JJ	.	.	.	.
!	!	!	!LO:HP:a	!	!	!
8FF#X/	.	16b/LL	<	.	.	.
.	.	16a/	.	.	.	.
8DD/J	.	16g/	.	.	.	.
.	.	16f/JJ)	.	.	.	.
=16	=16	=16	=16	=16	=16	=16
8EE 8CC/]	8ryy	16e/LL	.	2r	.	.
.	.	16f/	.	.	.	.
4AA/	[<4.AA\	16g/	.	.	.	.
.	.	16a/JJ	.	.	.	.
.	.	16g/LL	.	.	.	.
.	.	16f/	.	.	.	.
[>8G/	.	16e/	[	.	.	.
.	.	16d/JJ	.	.	.	.
=17	=17	=17	=17	=17	=17	=17
!	!	!	!LO:HP:a	!	!	!
8G/L]	2AA\_	16c/LL	>	2r	.	.
.	.	16B/	.	.	.	.
(<8F/	.	16A/	.	.	.	.
.	.	16B/JJ	.	.	.	.
8E/	.	16c/LL	.	.	.	.
.	.	16B/	.	.	.	.
8D#X/J	.	16A/	.	.	.	.
.	.	16B/JJ	]]	.	.	.
*v	*v	*	*	*	*	*
!!LO:PB:g=original
=18	=18	=18	=18	=18	=18
!	!	!	!LO:TX:a:i:t=dolce	!	!
[>2E 2AA/_<)	(<8.cL 8.A/	pp	4ee\	Za	.
.	16dJk 16B/	.	.	.	.
.	4e 4c/	.	4a/	gwiaz-	.
=19	=19	=19	=19	=19	=19
*	*^	*	*	*	*
2E_ 2AA/_	8d/	8B\L)	.	8b\	-decz-	.
.	(>4c/	8A\	.	8cc\	-ka	.
.	.	8F#X\	.	8dd\	gwiazd-	.
.	8B/)	8G#X\J	.	8ee\	-ką	.
*	*v	*v	*	*	*	*
=20	=20	=20	=20	=20	=20
*^	*	*	*	*	*
2E/]	4.AA\]	(<8.cL 8.A/	.	8cc\	spły-	.
.	.	.	.	8b\	-wa,	.
.	.	16dJk 16B/	.	.	.	.
.	.	4e 4c/)	.	8a/	A	.
.	8GG\	.	.	8b\	za	.
=21	=21	=21	=21	=21	=21	=21
*	*	*^	*	*	*	*
!LO:N:vis=2.	!	!	!LO:TX:a:t=P:problem=brak rozpoczęcia ligatury w źródle	!	!	!	!
8.FF/L	2FF\	(>4a/	[<2c\	<	8cc\L	łez-	.
!	!	!	!	!	!	!	!LO:HP:a
.	.	.	.	.	8dd\	.	<
(<16BB/K	.	.	.	.	.	.	.
!	!	!LO:TX:b:i:t=espress.	!	!	!	!	!
8C/	.	4a-X/	.	.	8ee\J	.	.
8D/J	.	.	.	[[	8ff\	-ką	[[
*v	*v	*	*	*	*	*	*
!!LO:LB:g=original
=22	=22	=22	=22	=22	=22	=22
8E 8CC/)	8g/)	(<16c\LL]	.	2ee\	łza;	.
.	.	16B\	.	.	.	.
8r	8ryy	16A\	.	.	.	.
.	.	16G\JJ	.	.	.	.
4r	4r	16A\LL	.	.	.	.
.	.	16G\	.	.	.	.
.	.	16A\	.	.	.	.
.	.	16B\JJ)	.	.	.	.
*	*v	*v	*	*	*	*
=23	=23	=23	=23	=23	=23
*^	*	*	*	*	*
!	!	!	!	!LO:TX:a:i:t=con duolo	!	!
4.E/	[<2AA\	(<8.cL 8.A/	.	4ee\	Cze-	.
.	.	16dJk 16B/	.	.	.	.
.	.	4e 4c/)	.	4a/	-muż	.
[>8G/	.	.	.	.	.	.
=24	=24	=24	=24	=24	=24	=24
*	*	*^	*	*	*	*
8G/]	2AA\_<	(>4d/	[2A\	.	8dd\	mi-	.
4F#X/	.	.	.	.	8cc\	-łość	.
.	.	[>4a/)	.	.	8b\	nie-	.
8Fn/	.	.	.	.	8a/	-szczę-	.
*	*	*v	*v	*	*	*	*
=25	=25	=25	=25	=25	=25	=25
!	!LO:N:vis=2.	!	!	!	!	!
8.E/L	2AA\_<	8.a]L 8.A/]	.	8cc\	-śli-	.
!	!	!	!	!	!	!LO:HP:a
.	.	.	.	8b\	-wa	<
16F/Jk	.	16g#XJk 16B/	<	.	.	.
[>4E/	.	8aL 8c/	.	8a/	wiecz-	.
.	.	8bJ 8d/	.	8f/	-nie	.
!!LO:LB:g=original
=26	=26	=26	=26	=26	=26	=26
*	*	*^	*	*	*	*
8E/L]	2AA\_	(>4cc/	4e\	.	4e/	w ser-	.
(<8E/	.	.	.	.	.	.	.
8F#X/	.	8ryy	8d#X\L	[	8f#X/L	-cu	.
8G#X/J)	.	8b/	8dn\J	.	8g#X/J	.	[
*	*	*v	*v	*	*	*	*
=27	=27	=27	=27	=27	=27	=27
8A 8AA\]	8ryy	16aLL 16c/)	.	2a/	trwa?	.
.	.	(<16cc/	>	.	.	.
*clefG2	*	*	*	*	*	*
4A/	[<4.A\	16dd/	.	.	.	.
.	.	16ee/JJ	.	.	.	.
.	.	16dd/LL	.	.	.	.
.	.	16cc/	.	.	.	.
[>8f/	.	16b/	.	.	.	.
.	.	16a/JJ	.	.	.	.
=28	=28	=28	=28	=28	=28	=28
!LO:TX:a:i:t=sempre	!	!	!	!	!	!
8f/L]	2A\]	16g/LL	.	2r	.	.
.	.	16a/	.	.	.	.
8e/	.	16b/	.	.	.	.
.	.	16cc/JJ	.	.	.	.
8d#X/	.	16b/LL	.	.	.	.
.	.	16a/	.	.	.	.
8B/J	.	16g/	.	.	.	.
.	.	16f/JJ)	.	.	.	.
=29	=29	=29	=29	=29	=29	=29
8c 8A/	8ryy	(<16e/LL	.	2r	.	.
.	.	16f/	.	.	.	.
*clefF4	*	*	*	*	*	*
4AA/	N[4AA\	16g/	.	.	.	.
.	.	16a/JJ	.	.	.	.
.	.	16g/LL	.	.	.	.
.	.	16f/	.	.	.	.
[>8G/	8ryy	16e/	.	.	.	.
.	.	16d/JJ	.	.	.	.
!!LO:LB:g=original
=30	=30	=30	=30	=30	=30	=30
8G/L]	[2AA\N]	16c/LL	.	2r	.	.
.	.	16B/	.	.	.	.
8F/	.	16A/	.	.	.	.
.	.	16B/JJ	.	.	.	.
8E/	.	16c/LL	.	.	.	.
.	.	16B/	.	.	.	.
8G/J	.	16c/	.	.	.	.
.	.	16d/JJ	.	.	.	.
*v	*v	*	*	*	*	*
=31||	=31||	=31||	=31||	=31||	=31||
*k[b-e-]	*k[b-e-]	*	*k[b-e-]	*	*
*M4/4	*M4/4	*	*M4/4	*	*
*met(c)	*met(c)	*	*met(c)	*	*
*	*^	*	*	*	*
!	!	!	!	!LO:TX:a:t=Andante con moto.	!	!
8G-X 8AA/]	16e-/LL	2ryy	.	2r	.	.
.	16Bn/	.	.	.	.	.
8r	16c/	.	.	.	.	.
.	16d/JJ	.	.	.	.	.
4r	16e-/LL	.	.	.	.	.
.	16c/	.	.	.	.	.
.	16d/	.	.	.	.	.
.	16e-/JJ)	.	.	.	.	.
!	!	!	!	!LO:TX:a:i:t=con tenerezza	!	!
2AA/	4g/	16g\LL	<	4r	.	.
.	.	16F\	.	.	.	.
.	.	16c\	.	.	.	.
.	.	16e-\JJ	.	.	.	.
.	[>4f/	16f\LL	.	[<4f/	Wiatr	.
.	.	16F\	.	.	.	.
.	.	16c\	.	.	.	.
.	.	16e-\JJ	[[	.	.	.
=32	=32	=32	=32	=32	=32	=32
[<1BB-	4f/]	(>16f\LL	p	4f/]	.	.
!	!LO:TX:b:i:t=espress.	!	!	!	!	!
.	.	16F\	.	.	.	.
.	.	16B-\	.	.	.	.
.	.	16c\JJ	.	.	.	.
.	4d/	16d\LL	.	4b-\	po	.
.	.	16F\	.	.	.	.
.	.	16B-\	.	.	.	.
.	.	16d\JJ	.	.	.	.
.	4e-/	16e-\LL	.	4cc\	le-	.
.	.	16G-X\	.	.	.	.
.	.	16B-\	.	.	.	.
.	.	16e-\JJ	.	.	.	.
.	4d/	16d\LL	.	4dd\	-sie	.
.	.	16F\	.	.	.	.
.	.	16B-\	.	.	.	.
.	.	16d\JJ	.	.	.	.
!!LO:LB:g=original
=33	=33	=33	=33	=33	=33	=33
1BB-_<	4f/	16f\LL	.	[>2ff\	liś-	.
.	.	16A-X\	.	.	.	.
.	.	16B-\	.	.	.	.
.	.	16f\JJ	.	.	.	.
.	4e-/	16e-\LL	.	.	.	.
.	.	16Gn\	.	.	.	.
.	.	16B-\	.	.	.	.
.	.	16e-\JJ	.	.	.	.
.	4d/	16d\LL	.	8ff\]	.	.
.	.	16F\	.	.	.	.
.	.	16B-\	.	8dd\	-cie	.
.	.	16c\JJ	.	.	.	.
.	4d/	16d\LL	<	8cc\	go-	.
.	.	16F\	.	.	.	.
!	!	!	!	!	!	!LO:HP:a
.	.	16B-\	.	8b-\	-ni	<
.	.	16d\JJ)	.	.	.	.
=34	=34	=34	=34	=34	=34	=34
4BB-/]	4c/	16c\LL	.	8a/	Ser-	.
.	.	16En\	.	.	.	.
.	.	16B-\	.	8b-\	-ce	.
.	.	16c\JJ	.	.	.	.
4BBB-/	4d/	16d\LL	.	8dd\	go-	.
.	.	16F\	.	.	.	.
.	.	16B-\	.	8b-\	-ni	.
.	.	16d\JJ	.	.	.	.
[<2BB-/	4en/	16e\LL	.	4a/	tak	.
.	.	16G\	.	.	.	.
.	.	16B-\	.	.	.	.
.	.	16d-X\JJ	.	.	.	.
.	4g/	16g\LL	.	4g/	wspom-	.
.	.	16B-\	.	.	.	.
.	.	16d-X\	.	.	.	.
.	.	16e\JJ	.	.	.	.
=35	=35	=35	=35	=35	=35	=35
4BB-/_<	4g/	16g\LL	.	4cc\	-nie-	.
.	.	16A\	.	.	.	.
.	.	16c\	.	.	.	.
.	.	16e-X\JJ	.	.	.	.
(>16BB-/LL]	8f/	2.ryy	.	2f^>/	-nia;	.
16BB-/	.	.	.	.	.	.
16F/	8r	.	.	.	.	.
16A/JJ	.	.	.	.	.	.
16c\LL	2r	.	.	.	.	.
16d\	.	.	.	.	.	.
16e-\	.	.	.	.	.	.
16g\JJ	.	.	.	.	.	.
!	!	!	!	!	!	!LO:DY:a
16f\LL	.	.	.	[<4f/	Liść	p
16e-\	.	.	.	.	.	.
16d\	.	.	.	.	.	.
16c\JJ)	.	.	.	.	.	.
*	*v	*v	*	*	*	*
!!LO:PB:g=original
=36	=36	=36	=36	=36	=36
!	!	!	!LO:TX:a:i:t=quasi mezza voce	!	!
(>16B-\LL	2r	.	4f/]	.	.
16F\	.	.	.	.	.
16B-\	.	.	.	.	.
16c\JJ	.	.	.	.	.
16d\LL	.	.	4b-\	gdzieś	.
16F\	.	.	.	.	.
16B-\	.	.	.	.	.
16d\JJ	.	.	.	.	.
!	!LO:TX:b:i:t=sotto voce	!	!	!	!
16f\LL	(>4f/	.	4cc\	zni-	.
16e-\	.	.	.	.	.
16B-\	.	.	.	.	.
16F\JJ	.	.	.	.	.
16f\LL	4b-\	.	4dd\	-knie	.
16d\	.	.	.	.	.
16B-\	.	.	.	.	.
16F\JJ)	.	.	.	.	.
=37	=37	=37	=37	=37	=37
*^	*	*	*	*	*
4e-/	(>16e-\LL	4cc\	.	[>2ff\	w mę-	.
.	16c\	.	.	.	.	.
.	16B-\	.	.	.	.	.
.	16F\JJ	.	.	.	.	.
4d/	16d\LL	4dd\	.	.	.	.
.	16c\	.	.	.	.	.
.	16B-\	.	.	.	.	.
.	16F\JJ	.	.	.	.	.
!	!	!LO:N:vis=2.	!	!	!	!
4f/	16f\LL	[>2ff\)	.	8ff\]	.	.
.	16B-\	.	.	.	.	.
.	16A-X\	.	.	8dd\	-tnéj	.
.	16B-\JJ	.	.	.	.	.
4e-/	16e-\LL	.	.	8cc\	to-	.
.	16B-\	.	.	.	.	.
.	16G\	.	.	8b-\	-ni	.
.	16B-\JJ)	.	.	.	.	.
=38	=38	=38	=38	=38	=38	=38
4d/	(16d\LL	8ff\L]	.	8a/	Pa-	.
.	16B-\	.	.	.	.	.
!	!	!	!	!	!	!LO:HP:a
.	16F\	(>8dd\	.	8b-\	-mięć	<
.	16B-\JJ	.	<	.	.	.
4c/	16c\LL	8cc\	.	8a/	w mo-	.
.	16B-\	.	.	.	.	.
.	16En\	8b-\J	.	8g/	-rzu	.
.	16B-\JJ	.	.	.	.	.
4c/	16c\LL	8a/L	.	4.cc\	za	.
.	16A\	.	.	.	.	.
.	16E-X\	8b-/	.	.	.	.
.	16G\JJ	.	.	.	.	.
4A/	16A\LL	8a/	.	.	.	.
.	16G\	.	[	.	.	.
.	16C\	8g/J	.	8e-/	po-	[[
.	16G\JJ)	.	.	.	.	.
!!LO:LB:g=original
=39	=39	=39	=39	=39	=39	=39
!	!	!	!	!	!	!LO:DY:a
4A/	(<16A\LL	4.cc\)	<	(<4d/	-mnie-	>
.	16F#X\	.	.	.	.	.
.	16D\	.	.	.	.	.
.	16F#\JJ	.	.	.	.	.
4B-/	16B-\LL	.	.	4g/)	.	.
.	16G\	.	.	.	.	.
.	16D\	(<8e-/	.	.	.	.
.	16G\JJ	.	.	.	.	.
4c/	16c\LL	4d/	.	4f#X/	-nia.	]
.	16A\	.	.	.	.	.
.	16D\	.	.	.	.	.
.	16A\JJ	.	.	.	.	.
4c#X/	16c#\LL	4g/	[	4r	.	.
.	16B-\	.	.	.	.	.
.	16D\	.	.	.	.	.
.	16B-\JJ	.	.	.	.	.
*v	*v	*	*	*	*	*
=40	=40	=40	=40	=40	=40
*	*^	*	*	*	*
16d\LL	4f#X/)	4ryy	.	2r	.	.
16D\	.	.	.	.	.	.
16A\	.	.	.	.	.	.
16d\JJ)	.	.	.	.	.	.
4r	(>4e-/	16e-\LL	.	.	.	.
.	.	16G\	.	.	.	.
.	.	16c\	.	.	.	.
.	.	16e-\JJ	.	.	.	.
4r	4d/	16d\LL	.	4r	.	.
.	.	16F#X\	.	.	.	.
.	.	16c\	.	.	.	.
.	.	16d\JJ	.	.	.	.
!	!	!	!	!LO:TX:a:i:t=con gran espressione	!	!
4GG^</	4fn/	16f\LL	.	[<4g/	Lecz	.
.	.	16G\	.	.	.	.
.	.	16Bn\	.	.	.	.
.	.	16f\JJ	.	.	.	.
=41	=41	=41	=41	=41	=41	=41
4CC/	4e-/)	16e-\LL	p	4g/]	.	.
!	!LO:TX:b:i:t=espressione	!	!	!	!	!
.	.	16G\	.	.	.	.
.	.	16c\	.	.	.	.
.	.	16d\JJ	.	.	.	.
4r	8.e-/L	(>16e-\LL	.	4cc\	gdy	.
.	.	16c\	.	.	.	.
.	.	16e-\	.	.	.	.
.	16a-X/Jk	16a-\JJ	.	.	.	.
(>4GG/	8.g/L	16g\LL	.	4dd\	wio-	.
.	.	16Bn\	.	.	.	.
.	.	16f\	.	.	.	.
.	16a-/Jk	16a-\JJ	.	.	.	.
4C/	8.g/L	16g\LL	.	4ee-\	-sny	.
.	.	16c\	.	.	.	.
.	.	16e-\	.	.	.	.
.	16an/Jk	16a\JJ	.	.	.	.
!!LO:LB:g=original
=42	=42	=42	=42	=42	=42	=42
4D\	8.bn/L	16b\LL	.	[>2gg\	wró-	.
.	.	16f\	.	.	.	.
.	.	16g\	.	.	.	.
.	16b/Jk	16b\JJ	.	.	.	.
4E-\	8.cc/L	16cc\LL	.	.	.	.
.	.	16e-\	.	.	.	.
.	.	16g\	.	.	.	.
.	16cc/Jk	16cc\JJ	.	.	.	.
[>2G\)	4ee-/	16ee-\LL	.	8gg\]	.	.
.	.	16cc\	.	.	.	.
.	.	16g\	.	8ee-\	-cą	.
.	.	16f\JJ)	.	.	.	.
.	8.e-/L	(>16e-\LL	.	8dd\	cza-	.
.	.	16c\	.	.	.	.
.	.	16e-\	.	8cc\	-sy	.
.	16f/Jk	16f\JJ	.	.	.	.
=43	=43	=43	=43	=43	=43	=43
8G\L]	4g/	16g\LL	.	8bn\	J	.
.	.	16c\	.	.	.	.
!	!	!	!	!	!	!LO:HP:a
(>8E-\	.	16e-\	.	8cc\	na-	<
.	.	16f\JJ	.	.	.	.
8D\	8.g/L	16g\LL	.	8ee-\	-tu-	.
.	.	16c\	.	.	.	.
8C\J	.	16e-\	.	8a-X/	-ry	.
.	16a-X/Jk	16a-\JJ	.	.	.	.
8BBn/L	4g/	16g\LL	.	4g/	strój	.
.	.	16d\	.	.	.	.
8C/	.	16f\	.	.	.	.
.	.	16g\JJ	.	.	.	.
8E-/	4f#X/	16f#\LL	.	4f#X/	od-	.
.	.	16c\	.	.	.	.
8AA-X/J	.	16e-\	.	.	.	.
.	.	16f#\JJ)	.	.	.	.
=44	=44	=44	=44	=44	=44	=44
4GG/)	(>4g/	16g\LL	.	(>4g/	-mie-	.
.	.	16c\	.	.	.	.
.	.	16e-\	.	.	.	.
.	.	16g\JJ	.	.	.	.
!	!LO:TX:b:t=espress.	!	!	!	!	!LO:HP:a
(<4FF#X/	4cc/	16cc\LL	.	4cc\)	.	>
.	.	16e-\	.	.	.	.
.	.	16a-X\	.	.	.	.
.	.	16cc\JJ	.	.	.	.
4GG/	4bn/	16b\LL	.	4bn\	-nią	.
.	.	16d\	.	.	.	]
.	.	16g\	.	.	.	.
.	.	16b\JJ	.	.	.	.
4C/	4a-X/	16a-\LL	.	4r	.	.
.	.	16d\	.	.	.	.
.	.	16f\	.	.	.	.
.	.	16a-\JJ	.	.	.	.
!!LO:LB:g=original
=45	=45	=45	=45	=45	=45	=45
4BBn/	4g/	16g\LL	.	2r	.	.
.	.	16G\	.	.	.	.
.	.	16d\	.	.	.	.
.	.	16en\JJ	.	.	.	.
2BB-X/	4f^>/	16f\LL	.	.	.	.
.	.	16G\	.	.	.	.
.	.	16d\	>	.	.	.
.	.	16f\JJ	.	.	.	.
.	4en/	16en\LL	.	4r	.	.
.	.	16G\	.	.	.	.
.	.	16d-X\	.	.	.	.
.	.	16e\JJ	.	.	.	.
!	!	!	!	!	!	!LO:DY:a
4AA/)	4e-X/	16e-\LL	.	[<4f/	No-	p
.	.	16F\	.	.	.	.
.	.	16c\	.	.	.	.
.	.	16e-\JJ	]]	.	.	.
=46	=46	=46	=46	=46	=46	=46
[<4BB-/	4d/)	16d\LL	.	4f/]	.	.
.	.	(>16F\	.	.	.	.
.	.	16B-\	.	.	.	.
.	.	16c\JJ	.	.	.	.
8BB-/]	4ree	16d\LL	.	4b-\	-wych	.
.	.	16B-\	.	.	.	.
8r	.	16d\	.	.	.	.
.	.	16en\JJ)	.	.	.	.
2r	(>4f/	16f\LL	pp	4cc\	wspo-	.
.	.	16A\	.	.	.	.
.	.	16e-X\	.	.	.	.
.	.	16f\JJ	.	.	.	.
.	4b-/	16b-\LL	.	4dd\	-mnień	.
.	.	16d\	.	.	.	.
.	.	16f\	.	.	.	.
.	.	16b-\JJ	.	.	.	.
=47	=47	=47	=47	=47	=47	=47
!	!	!	!	!	!	!LO:HP:a
(<4FF/	4cc/	16cc\LL	.	[>2ff\	no-	<
.	.	16e-\	.	.	.	.
.	.	16f\	.	.	.	.
.	.	16a\JJ	.	.	.	.
4BB-/	4dd/	16dd\LL	.	.	.	.
.	.	16d\	.	.	.	.
.	.	16f\	.	.	.	.
.	.	16b-\JJ	.	.	.	.
!	!LO:TX:a:t=P:problem=w źródle brak rozpoczęcia ligatury	!LO:N:vis=2	!	!	!	!
4C/	[>2ff/)	16ff\LL	.	8ff\]	.	[[
.	.	16f\	.	.	.	.
!	!	!	!	!	!	!LO:HP:a:t=cresc. un poco
.	.	16b-\	.	8dd\	-we	<
.	.	16dd\JJ	.	.	.	.
4D/)	.	16cc\LL	.	8cc\	kra-	.
.	.	16f\	.	.	.	.
.	.	16b-\	.	8b-\	-sy	.
.	.	16cc\JJ	.	.	.	.
!!LO:LB:g=original
=48	=48	=48	=48	=48	=48	=48
[>2F\	8ff/L]	16dd\LL	.	8a/	Czyż	.
.	.	16b-\	.	.	.	.
.	(>8dd/	16f\	.	8b-\	i	.
.	.	16b-\JJ	.	.	.	.
.	8cc/	16e-\LL	.	8a/	ser-	.
.	.	16f\	.	.	.	.
.	8b-/J	16d\	.	8g/	-ca	.
.	.	16f\JJ	.	.	.	.
8F\L]	8a/L	16c\LL	.	(>4f/	o-	.
.	.	16f\	.	.	.	.
(<8D\	8b-/	16d\	.	.	.	.
.	.	16f\JJ	.	.	.	.
8C\	8a/	16e-\LL	.	4ee-\)	-zie-	.
.	.	16f\	.	.	.	.
8BB-\J	8g/J	16e-\	.	.	.	.
.	.	16c\JJ	.	.	.	.
=49	=49	=49	=49	=49	=49	=49
!	!	!	!	!	!	!LO:DY:a
8AA/L	4f/)	16e-\LL	.	(>4.dd\	-le-	>
.	.	16F\	.	.	.	.
8BB-/	.	16e-\	.	.	.	.
.	.	16f\JJ	.	.	.	.
8AA/	(>4ee-/	16g\LL	.	.	.	.
.	.	16f\	.	.	.	.
8FF/J)	.	16a\	.	8cc\)	.	.
.	.	16f\JJ	.	.	.	.
(>4.F\	4.dd/	16b-\LL	.	4b-\	-nią?	.
.	.	16f\	.	.	.	.
.	.	16d\	.	.	.	.
.	.	16f\JJ	.	.	.	.
.	.	16b-\LL	.	4r	.	.
.	.	16f\	.	.	.	.
8FF/	8cc/)	16e-\	.	.	.	.
.	.	16a\JJ	.	.	.	.
*	*v	*v	*	*	*	*
=50	=50	=50	=50	=50	=50
8GG/)	(>16b-LL 16d/	pp	1r	.	.
.	16a/	.	.	.	.
8r	16g/	.	.	.	.
.	16d/JJ	.	.	.	.
4r	16c#X/LL	.	.	.	.
.	16B-/	.	.	.	.
.	16A/	.	.	.	.
.	16G/JJ	.	.	.	.
2r	16A/LL	.	.	.	.
.	16B-/	.	.	.	.
.	16c#/	.	.	.	.
.	16d/JJ	.	.	.	.
.	16g\LL	.	.	.	.
.	16a\	.	.	.	.
.	16b-\	.	.	.	.
.	16dd\JJ)	.	.	.	.
*clefG2	*	*	*	*	*
=51	=51	=51	=51	=51	=51
*	*^	*	*	*	*
[<2en/	2dd/	2b- [<2g\	>	1r;>	.	.
4e/]	4cc#X;>/	4b- 4g\]	.	.	.	.
4r	[<4a/	4ryy	]	.	.	.
*	*v	*v	*	*	*	*
*kcancel	*kcancel	*	*kcancel	*	*
!!LO:LB:g=original
=52||	=52||	=52||	=52||	=52||	=52||
*k[b-]	*k[b-]	*	*k[b-]	*	*
*M6/8	*M6/8	*	*M6/8	*	*
!	!	!	!LO:TX:a:t=Andantino.	!	!
2.f 2.d/	8a\L]	p	8r	.	.
!	!LO:TX:b:i:t=con grazia	!	!LO:TX:a:i:t=ben parlando	!	!LO:DY:a:rj
.	(>8a\	.	8a/	Zna-	p
.	8aa\J	.	8a/	-łem	.
.	8ff\L	.	8a/L	kwiat-	.
.	8dd\	.	8cc/J	.	.
.	[>8cc\J	.	8cc\	-ki	.
=53	=53	=53	=53	=53	=53
(<4g 4e/	8cc\L])	.	8r	.	.
.	(>8a\	.	8a/	po	.
8f 8d/	[>8b-\J	.	8b-\	wię-	.
4.e 4.c#X/)	8b-/L])	.	4b-\	-dnia-	.
.	(<8g#X/	.	.	.	.
.	8a/J)	.	8a/	-ły!	.
=54	=54	=54	=54	=54	=54
[>4.e-X 4.cn/	8r	.	8r	.	.
.	(>8g\L	.	8g/	Zna-	.
.	8ee-X\J	.	8g/	-łem	.
4.e-_> 4.F#X/	8cc\L	.	8a/L	ptasz-	.
.	8b-\	.	8b-/J	.	.
.	[>8a\J	.	8cc\	-ki	.
!!LO:LB:g=original
=55	=55	=55	=55	=55	=55
(>4.e-] [<4.G/	8a/L])	.	8r	.	.
.	(<8f#X/	.	8a/	od-	.
.	8a/J	.	8cc\	-le-	.
8d 8G/])	8g/L	.	8b-/L	-cia-	.
8r	8a/	.	8a/J	.	.
8r	8b-/J)	.	8g/	-ły	.
=56	=56	=56	=56	=56	=56
4r	2.dd 2.b- 2.g^</	.	8g/L	Zna-	.
!	!	!	!LO:TX:a:i:t=espress.	!	!
.	.	.	8a/J	.	.
(<8f/	.	.	8b-\	-łem	.
8d/L	.	.	(>4dd\	słoń-	.
8e/	.	.	.	.	.
8f/J)	.	.	8g/)	-ce	.
=57	=57	=57	=57	=57	=57
*	*^	*	*	*	*
4r	2.dd 2.b-/	[<4.g\	.	8g/L	za-	.
.	.	.	.	8a/J	.	.
8d/	.	.	.	8b-\	-szło	.
8G/L	.	4g\]	.	(>4b-\	w to-	.
8A/	.	.	.	.	.	.
8B-/J	.	8f\	.	8d/)	-nie!	.
*clefF4	*	*	*	*	*	*
=58	=58	=58	=58	=58	=58	=58
!	!	!	!LO:DY:a	!	!	!
4r	[>2.a [>2.f [<2.c#X/	4.ryy	sfz	4.r	.	.
8r	.	.	.	.	.	.
!	!	!	!LO:DY:b=2	!	!	!LO:HP:a
(>4A\	.	4.ryy	p	[<4.a/	Zna-	<
8G\	.	.	.	.	.	.
!!LO:LB:g=original
=59	=59	=59	=59	=59	=59	=59
!	!	!	!LO:HP:b=2	!	!	!
8F\L	2.a] 2.f/]	4.c#\]	<	(>4a/]	.	.
8E\	.	.	.	.	.	.
8D\J	.	.	.	8ff\)	-łem	[
8D/L	.	4.d\	.	8ff\L	mi-	.
8C/	.	.	[	8ee\J	.	.
8BBn/J)	.	.	.	8dd\	-łość	.
=60	=60	=60	=60	=60	=60	=60
(>4.F\	(>4.a/	2.d 2.Bn\	.	4.r	.	.
!	!	!	!	!LO:TX:a:i:t=espress.	!	!
4E\)	4g#X/)	.	.	4e/	Pust-	.
8r	8e/	.	.	8e/	-ki	.
=61	=61	=61	=61	=61	=61	=61
!	!	!	!	!LO:N:vis=4	!	!LO:HP:a
4r	(>[>4.g 4.d/	[4.B-X/	.	(<[<4.g/	w ło-	>
8EE/	.	.	>	.	.	.
4.AA/	8g]L 8B-/]	4.c#X\	.	8g/L]	.	.
.	8f 8A/	.	]	8f/	.	.
.	8eJ 8G/	.	.	8e/J)	.	]]
*	*v	*v	*	*	*	*
=62	=62	=62	=62	=62	=62
8DD/	8dL 8F/)	.	4d/	-nie!	.
8r	(>8f/	.	.	.	.
8r	8ff/J	<	8r	.	.
4r	8dd\L	.	4.r	.	.
.	8b-\	.	.	.	.
*clefG2	*	*	*	*	*
(<8f 8d/	[>8g#X\J)	[[	.	.	.
!!LO:PB:g=original
=63	=63	=63	=63	=63	=63
*clefF4	*	*	*	*	*
8GG 8EE/)	8g#X\L]	.	2.r	.	.
8r	(>8a\	.	.	.	.
8r	8aa\J	.	.	.	.
4r	8ff\L	.	.	.	.
.	8dd\	.	.	.	.
(<8AA 8FF/	[>8b-\J	.	.	.	.
=64	=64	=64	=64	=64	=64
4.GG 4.EE#X/	8b-\L])	p	8r	.	.
!	!	!	!LO:TX:a:i:t=poco più animato	!	!LO:DY:a:rj
.	(>8a\	.	8a/	Pącz-	p
.	8gg\J	.	8a/	-ki	.
4.AA 4.FF/	8ff\L	.	(<8a/L	znam	.
.	8dd\	.	8dd/J)	.	.
.	8cc\J	.	8cc\	za	.
=65	=65	=65	=65	=65	=65
.	8qcc/	.	.	.	.
4BB- 4GG/	8b-/L	.	8b-/L	kwi-	.
.	8a/	.	8a/J	.	.
8AA 8FF/	[<8b-/J	.	8b-\	-tną	.
4.GG 4.EE#X/)	8b-/L])	.	4b-\	grzę-	.
.	8g#X/	.	.	.	.
.	[<8a/J	.	8a/	-dą	.
=66	=66	=66	=66	=66	=66
(<2.GG-X 2.EEn/	(>8a\L]	.	8r	.	.
.	8g\	.	8g/	Gniazd-	.
.	8gg\J	.	8g/	-ka	.
.	8ee-X\L	.	(<8g/L	znam	.
.	8cc\	.	8cc/J)	.	.
.	[>8a-X\J	.	8a-X/	więc	.
!!LO:LB:g=original
=67	=67	=67	=67	=67	=67
4.FF 4.DDn/	8a-/L])	.	8a-X/L	ptasz-	.
.	(<8g/	.	8g/J	.	.
.	8a-X/J	.	8a-/	-ką	.
4.FF-X 4.DD-X/)	8g/L)	.	4g/	bę-	.
.	N[8en/	.	.	.	.
.	8f/J	.	8g/	-dą,	.
=68	=68	=68	=68	=68	=68
*	*^	*	*	*	*
2.EE 2.DD/	[>4.g/	8e\LN]	.	4g/	Znam	.
.	.	8c\	.	.	.	.
.	.	8d\J	.	8g/	ju-	.
!	!	!	!LO:HP:t=cresc. poco a poco e stringendo:dur=10e	!	!	!LO:HP:a:t=cresc poco a poco stringendo:dur=10e
.	8g]L 8e/	4.ryy	<	8g/L	-trzen-	<
.	8a 8f#X/	.	.	8a/J	.	.
.	8b-J 8g/	.	.	8b-\	-kę	.
*clefG2	*	*	*	*	*	*
=69	=69	=69	=69	=69	=69	=69
*^	*	*	*	*	*	*
2.c/	4A\	(>8cc/L	4a\	.	(>8cc\L	słoń-	.
.	.	8ee-X/	.	.	8ee-X\J)	.	.
.	8G\	[>8ee-/J	8b-\	.	8ee-\	-ce	.
.	4.F#X\	8ee-/L]	4.a\	.	4ee-\	wró-	.
.	.	8cc#X/	.	.	.	.	.
.	.	[>8dd/J	.	.	8dd\	-ci	.
*v	*v	*	*	*	*	*	*
*	*v	*v	*	*	*	*
=70	=70	=70	=70	=70	=70
8B- 8G/	8dd]L 8b-\)	.	4dd\	Znam	.
8r	(>8b- 8g\	.	.	.	.
!	!	!	!LO:N:vis=4	!	!
8r	8ccJ 8a\	.	8dd\	ju-	.
[>4.g 4.f/	8ddL 8bn\	.	8dd\L	-trzen-	.
.	8ee 8cc#X\	.	8een\J	.	.
.	8ffJ 8dd\	.	8ff\	-kę	.
!!LO:LB:g=original
=71	=71	=71	=71	=71	=71
*^	*^	*	*	*	*
4.g/_>	4e\	8gg/L	4ee\	.	(>4gg\	słoń-	.
.	.	8bb-/	.	.	.	.	.
.	8d\	[>8bb-/J	8ff\	.	8b-\)	-ce	.
4.g/] 4.c#X/	4.ryy	8bb-/L]	4.ee\	.	4b-\	wró-	.
.	.	8gg#X/	.	.	.	.	.
.	.	8aa/J)	.	.	8a/	-ci,	.
*v	*v	*	*	*	*	*	*
*clefF4	*	*	*	*	*	*
=72	=72	=72	=72	=72	=72	=72
4r	2.f 2.c#X 2.A/	4.ryy	.	4r	.	.
!LO:TX:a:i:t=più sostenuto	!	!	!	!	!	!
8r	.	.	.	8ryy	.	.
!	!	!	!LO:HP:b=2	!	!	!LO:DY:a
(>4F\	.	4.ryy	<	4a/	ser-	p
!	!	!	!	!	!	!LO:HP:a
8E\	.	.	.	8a/	-ce	<
=73	=73	=73	=73	=73	=73	=73
4D\	2.f 2.d 2.B-/	4.ryy	[	4.dd\	Znam	[[
8C/	.	.	.	.	.	.
!	!	!	!LO:HP:b=2	!LO:TX:a:i:t=sotto voce	!	!
8BB-/L	.	4.rgyy	>	8dd\	czyż	.
8AA/J	.	.	.	8cc\	się	.
8GG/)	.	.	]]	8b-\	o-	.
=74	=74	=74	=74	=74	=74	=74
4r	[>4.f/	[<4.c#X 4.A\	.	(<2.a/	-cu-	.
8r	.	.	.	.	.	.
[<4.AA/	4f/]	4c#] 4G\	.	.	.	.
.	8e/	8ryy	.	.	.	.
*	*v	*v	*	*	*	*
!!LO:LB:g=original
=75||	=75||	=75||	=75||	=75||	=75||
*k[]	*k[]	*	*k[]	*	*
!	!LO:TX:a:i:t=molto grazioso	!	!LO:TX:a:i:t=con moto	!	!
4.AA] 4.AAA\	(>8dL 8cn 8F#X</	.	4d/)	-ci?	.
.	8D</	.	.	.	.
.	8cJ 8F#</	.	8r	.	.
[<4.GG [<4.GGG\	8BL 8G/	<	4r	.	.
.	8D</	.	.	.	.
.	8cJ 8A/	.	8r	.	.
=76	=76	=76	=76	=76	=76
4.GG_> 4.GGG/_<	8dL 8B/	[	4r	.	.
.	8G/	.	.	.	.
.	8eJ 8c/	.	8r	.	.
8GG] 8GGG/]	8fL 8d/	.	8r	.	.
!	!	!	!	!	!LO:DY:a
8r	8e 8c/	.	8g/	Dziew-	p
8r	8d#XJ 8B/)	.	8g/	-czę	.
=77	=77	=77	=77	=77	=77
2.C 2.CC/	(<8eL 8c/	p	4g/	z ocz-	.
.	8G/	.	.	.	.
!	!	!	!	!	!LO:HP:a
.	8eJ 8c/	.	8g/	-ki	<
.	8e-XL 8c/	.	8a/L	nie-	.
.	8G/	.	8b/J	.	.
.	8e-J 8c/)	.	8cc\	-bies-	[[
=78	=78	=78	=78	=78	=78
2.GG 2.GGG\	(>8dL 8c/	.	4.dd\	-kie-	.
.	8D</	.	.	.	.
.	8dJ 8c/	.	.	.	.
!	!	!	!LO:TX:a:i:t=espress.	!	!
.	8dL 8B/	.	4dd\	-mi	.
.	8D</	.	.	.	.
.	8eJ 8B-X/)	.	(>8ee\	Dziew-	.
!!LO:PB:g=original
=79	=79	=79	=79	=79	=79
[4.DD/	(>8fL 8A/	<	8ff\)	.	.
.	8F/	.	8ee\	-czę	.
.	8fJ 8d 8A/	.	8dd\	z pło-	.
4.D 4.DD/]	8aL 8f 8d/	.	8cc\	-we-	.
.	8A/	.	8b\	-mi	.
.	8aJ 8f 8c/)	[[	8a/	war-	.
=80	=80	=80	=80	=80	=80
*	*^	*	*	*	*
[>4.GG [<4.GGG/	(>4.a 4.f/	8f\L	.	4.dd\	-ko-	.
.	.	8A\	>	.	.	.
.	.	8c\J	.	.	.	.
8GG]L 8GGG/]	4.g 4.f/)	8B\L	]	8g/	-cze,	.
!	!	!	!	!LO:TX:a:i:t=dolce	!	!
8AA/	.	8c\	.	8g/	Zkąd	.
8BB/J	.	8d\J	.	8g/	te	.
*	*v	*v	*	*	*	*
=81	=81	=81	=81	=81	=81
!	!LO:TX:b:i:t=dolce	!	!	!	!
2.C 2.CC/	(>8gL 8e/	.	4ee\	wdzię-	.
.	8G/	.	.	.	.
.	8fJ 8B/	.	8dd\	-ki	.
.	8eL 8c/	.	8cc\L	ci	.
.	8G/	.	8b\J	.	.
.	8fJ 8d/)	.	8a/	u-	.
=82	=82	=82	=82	=82	=82
*	*^	*	*	*	*
[>4.GG [<4.GGG/	(>4.a 4.f/	8c\L	.	4.a/	-ro-	.
.	.	8A\	.	.	.	.
.	.	8c\J	.	.	.	.
8GG]L 8GGG/]	4.g 4.f/	8B\L	.	8a/	-cze	.
(>8AA/	.	8c\	.	8g/	zkąd	.
8BB/J	.	8d\J)	.	8g/	te	.
*	*v	*v	*	*	*	*
!!LO:LB:g=original
=83	=83	=83	=83	=83	=83
[>4.AA/)	(<8ccL 8e/	.	4cc\	wdzię-	.
.	8c/	.	.	.	.
.	8g#XJ 8d/	.	8b\	-ki	.
!	!	!	!	!	!LO:HP:a
4.AA] 4.AAA/	8aL 8c/	.	8a/L	ci	<
.	8e/	.	8e/J	.	.
.	8fJ 8A/)	.	8f/	u-	.
=84	=84	=84	=84	=84	=84
2.BB 2.BBB\	(>8eL 8c/	<	[<4.a/	-ro-	.
.	8F#X</	.	.	.	.
.	8eJ 8c/	.	.	.	.
.	8d#XL 8B/	.	8a/]	.	.
.	8e 8c#X 8A#X/	.	8g/	-cze,	.
.	8fJ 8d# 8An/)	[[	8f#X/	Co	[[
=85	=85	=85	=85	=85	=85
4.BB-X 4.BBB-X/	(>8gL 8e/	<	8e/L	nie-	.
!	!	!	!	!	!LO:HP:a
.	8G/	.	8f#X/J	.	<
.	8gJ 8dn/)	.	8g/	-bo	.
4.AA 4.AAA/	(<8gL 8c#X/	.	8g/	two-	.
.	8A/	.	8f#/	-rzą	.
.	8eJ 8c# 8G/)	.	8g/	ze	.
=86	=86	=86	=86	=86	=86
*	*^	*	*	*	*
2.D 2.DD/	(>8eL 8cn/	4.ryy	.	[>4.cc\	zie-	.
.	8G/	.	.	.	.	.
.	8eJ 8c/	.	.	.	.	.
!	!	!	!	!	!	!LO:HP:a
.	8dL 8F#X/	4.c\	.	8cc\L]	.	>
.	8e 8G/	.	.	8b\	.	.
.	8fJ 8c 8A/)	.	.	8a\J	.	]]
*	*v	*v	*	*	*	*
!!LO:LB:g=original
=87	=87	=87	=87	=87	=87
8GG 8GGG/	16gLL 16B 16G/	.	4g/	-mi?	.
.	16g 16G/	.	.	.	.
8r	16g 16G/	.	.	.	.
.	16g 16G/	.	.	.	.
8r	16g 16G/	<	8r	.	.
.	16gJJ 16G/	.	.	.	.
(>4.F\	16gLL 16d 16G/	.	4r	.	.
.	16g 16d 16G/	.	.	.	.
.	16g 16d 16G/	.	.	.	.
.	16g 16d 16G/	.	.	.	.
!	!	!	!	!	!LO:DY:a:rj
.	16g 16d 16G/	.	8g/	Dziew-	f
.	16gJJ 16d 16G/	[[	.	.	.
=88	=88	=88	=88	=88	=88
!	!	!	!LO:TX:a:i:t=con gran passione	!	!
16EE\LL)	16g 16d 16G/	f	4gg\	-czy-	.
16d 16B-X 16G 16E\	16r	.	.	.	.
16d 16B- 16G 16E\	8r	.	.	.	.
16d 16B- 16G 16E\	.	.	.	.	.
16d 16B- 16G 16E\	(>8g/	<	8ff\	-no	.
16dJJ 16B- 16G 16E\	.	.	.	.	.
16c#XLL 16A\	8gg'\L)	[	8ee\	z ser-	.
16c# 16A\	.	.	.	.	.
16c# 16A\	16.r	.	8dd\	-cem	.
16c# 16A\	.	.	.	.	.
.	(>32f\KK	.	.	.	.
16c# 16A\	8e\J	.	8cc#X\	z ka-	.
16c#JJ 16A\	.	.	.	.	.
=89	=89	=89	=89	=89	=89
8cn 8A-X\	16f/LL)	.	4.ff\	-mie-	.
.	16f/	.	.	.	.
8r	16f 16c/	.	.	.	.
.	16f 16c/	.	.	.	.
(>8A-\	16f 16c/	.	.	.	.
.	16fJJ 16c/	.	.	.	.
8AA-X/L)	16a-XLL 16f 16c/	.	8ccn\	-nia	.
.	16a- 16f 16c/	.	.	.	.
16.r	16a- 16f 16c/	.	8r	.	.
.	16a- 16f 16c/	.	.	.	.
(<32GG/KK	.	.	.	.	.
8FF/J	16a- 16f 16c/	.	(>8cc\	W spo-	.
.	16a-JJ 16f 16c/	.	.	.	.
!!LO:LB:g=original
=90	=90	=90	=90	=90	=90
16DD\LL)	8cc 8a-X 8f 8c/	.	8ff\)	.	.
16c 16A-X 16F 16D\	.	.	.	.	.
16c 16A- 16F 16D\	8r	.	8ff\	-sób	.
16c 16A- 16F 16D\	.	.	.	.	.
16c 16A- 16F 16D\	(>8f/	.	8ee-X\	drę-	.
16cJJ 16A- 16F 16D\	.	.	.	.	.
16BLL 16G\	8ff/L)	.	8dd\	-cze-	.
16B 16G\	.	.	.	.	.
16B 16G\	16.r	.	8cc\	-nia	.
16B 16G\	.	.	.	.	.
.	(<32e-X/KK	.	.	.	.
16B 16G\	8d/J	.	8b\	za-	.
16BJJ 16G\	.	.	.	.	.
=91	=91	=91	=91	=91	=91
8B-X 8G-X\	16e-X/LL)	.	4.ee-X\	-mo-	.
.	16e-/JJ	.	.	.	.
8r	16e-LL 16B-X/	.	.	.	.
.	16e- 16B-/	.	.	.	.
!	!	!LO:HP:b=2	!	!	!
(>8G-\	16e- 16B-/	>	.	.	.
.	16e-JJ 16B-/	.	.	.	.
8GG-X/L)	16g-XLL 16e- 16B-/	]	4b-X\	-żna	.
.	16g- 16e- 16B-/	.	.	.	.
16.r	16g- 16e- 16B-/	.	.	.	.
.	16g-JJ 16e- 16B-/	.	.	.	.
(<32FF/KK	.	.	.	.	.
8EE-X/J)	16b-XLL 16g- 16e- 16B-/	.	8r	.	.
.	16b-JJ 16g- 16e- 16B-/	.	.	.	.
=92	=92	=92	=92	=92	=92
*ped	*	*	*	*	*
16r	4.ee-X 4.b-X 4.g-X 4.e-X/	.	4r	.	.
(<16EE-X/LL	.	.	.	.	.
16BB-X/	.	.	.	.	.
16G-X/	.	.	.	.	.
16BB-/	.	.	8r	.	.
16EE-/JJ)	.	.	.	.	.
!	!	!	!LO:TX:a:i:t=sotto voce	!	!LO:DY:a
16r	4.b- 4.g- 4.e- 4.B/	.	8e-X/	Zkąd	p
(<16EE-/LL	.	.	.	.	.
16BB-/	.	.	8e-/	ci	.
16G-/	.	.	.	.	.
16BB-/	.	.	8e-/	ta	.
*Xped	*	*	*	*	*
16EE-/JJ)	.	.	.	.	.
!!LO:PB:g=original
=93	=93	=93	=93	=93	=93
*	*^	*	*	*	*
*	*	*	*^	*	*	*
*ped	*	*	*	*	*	*	*
16r	(>4.cc-X 4.a-X 4.e-X 4.c-X/	8.ryy	>	.	4.cc-X\	si-	.
(>16FF\LL	.	.	.	.	.	.	.
16E-X\	.	.	.	.	.	.	.
!	!	!	!	!LO:HP:b=2	!	!	!
16A-X\	.	8.ryy	.	<	.	.	.
*Xped	*	*	*	*	*	*	*
16B-X\	.	.	.	.	.	.	.
16c-X\JJ	.	.	.	[	.	.	.
*ped	*	*	*	*	*	*	*
16B-\LL	4f 4d/)	16ryy	]	.	4b-X\	-ła	.
!	!	!	!	!LO:HP:b=2	!	!	!
16F\	.	4ryy	.	>	.	.	.
16D\	.	.	.	.	.	.	.
16BB-X\	.	.	.	.	.	.	.
16AA-X\	8b 8f 8d/	.	.	]	8r	.	.
*Xped	*	*	*	*	*	*	*
16FF\JJ)	.	16ryy	.	.	.	.	.
*	*	*	*v	*v	*	*	*
*	*v	*v	*	*	*	*
=94	=94	=94	=94	=94	=94
*ped	*	*	*	*	*
16r	(>4.ee-X 4.b-X 4.g-X 4.e-X/	pp	4r	.	.
(<16EE-X/LL	.	.	.	.	.
16BB-X/	.	.	.	.	.
16G-X/	.	.	.	.	.
16BB-/	.	.	8e-X/	ta	.
16EE-/JJ)	.	.	.	.	.
16r	4.b- 4.g- 4.e- 4.B-X/)	.	8e-/	si-	.
(<16EE-/LL	.	.	.	.	.
16BB-/	.	.	8e-/	-ła	.
16G-/	.	.	.	.	.
16BB-/	.	.	8e-/	bez-	.
16EE-/JJ)	.	.	.	.	.
*Xped	*	*	*	*	*
=95	=95	=95	=95	=95	=95
*	*^	*	*	*	*
!	!	!	!LO:DY:a	!	!	!
!	!LO:TX:a:i:t=poco	!	!LO:DY:a	!	!	!
*	*	*	*^	*	*	*
*ped	*	*	*	*	*	*	*
16r	([4.bn 4.a-X [4.d [4.Bn/	8ryy	.	.	4.cc-X\	-bo-	.
(<16FF/LL	.	.	.	.	.	.	.
!	!	!	!LO:HP:b=2	!	!	!	!
16BB/	.	2ryy	<	.	.	.	.
!	!	!	!	!LO:DY:a	!	!	!
16D/	.	.	.	sf	.	.	.
!	!	!	!	!LO:HP:a	!	!	!
16G/	.	.	.	>	.	.	.
*Xped	*	*	*	*	*	*	*
16A-X/JJ	.	.	.	.	.	.	.
*ped	*	*	*	*	*	*	*
16G/LL	4b] 4g 4d] 4B/])	.	.	.	4bn\	-żna	.
16F/	.	.	.	]	.	.	.
16D/	.	.	.	.	.	.	.
16BB/	.	.	[	.	.	.	.
16GG/	8b 8B/	8ryy	.	.	8b\	Co	.
*Xped	*	*	*	*	*	*	*
16FF/JJ)	.	.	.	.	.	.	.
*	*	*	*v	*v	*	*	*
!!LO:LB:g=original
=96	=96	=96	=96	=96	=96	=96
!	!	!	!	!LO:TX:a:i:t=espress.	!	!
(<4EE/	8ddL 8d/	16d\LL	.	8dd\L	nie-	.
.	.	16g\	.	.	.	.
!	!LO:TX:b:i:t=espress.	!	!	!	!	!
.	8cc 8c/	16c\	.	8cc\J	.	.
.	.	16g\	.	.	.	.
8EE-X/	8aJ 8A/	16A\	.	8a/	-bo	.
.	.	16c\JJ	.	.	.	.
4.DD/)	4.g 4.G/	16G\LL	.	8g/	w piek-	.
.	.	16B\	.	.	.	.
.	.	16f\	.	8g/	-ło	.
.	.	16B\	.	.	.	.
.	.	16f\	.	8g/	za-	.
.	.	16B\JJ	.	.	.	.
=97	=97	=97	=97	=97	=97	=97
!	!	!	!	!LO:TX:a:i:t=con grido	!	!
(<4.AA 4.AAA/	8cc/L	16c\LL	.	4.gg\	-mie-	.
.	.	16e-X\	.	.	.	.
.	8a/	16A\	.	.	.	.
.	.	16e-\	.	.	.	.
.	8g/J	16G\	.	.	.	.
.	.	16e-\JJ	.	.	.	.
4.D 4.DD/	4.f#X 4.F#X/	16F#\LL	.	4ff#X\	-nia	.
.	.	16c\	.	.	.	.
.	.	16d\	.	.	.	.
.	.	16c\	.	.	.	.
.	.	16d\	.	8cc\	Co	.
.	.	16c\JJ	.	.	.	.
=98	=98	=98	=98	=98	=98	=98
2.GG 2.GGG/)	8dd:L 8f:/	16B:\LL	.	2.ffn\	nie-	.
.	.	16f\	.	.	.	.
.	8b 8d/	16d\	.	.	.	.
.	.	16f\	.	.	.	.
.	8aJ 8c/	16c\	.	.	.	.
.	.	16f\JJ	.	.	.	.
.	8gL 8B/	16B\LL	.	.	.	.
.	.	16f\	.	.	.	.
.	8a 8c/	16c\	.	.	.	.
.	.	16f\	.	.	.	.
.	8bJ 8d/	16d\	.	.	.	.
.	.	16f\JJ	.	.	.	.
!!LO:LB:g=original
=99	=99	=99	=99	=99	=99	=99
(<4.AA 4.AAA/	(>4.cc 4.c/	16c\LL	.	4ee\	-bo	.
.	.	16d\	.	.	.	.
.	.	16a\	.	.	.	.
.	.	16e\	.	.	.	.
.	.	16a\	.	8r	.	.
.	.	16e\JJ	.	.	.	.
4.FF/	4.dd 4.d/	16d\LL	.	8dd\	w pie-	.
!	!LO:TX:b:i:t=stringendo un poco	!	!	!	!	!
.	.	16a\	.	.	.	.
!	!	!	!	!LO:TX:a:i:t=stringendo un poco	!	!
.	.	16cc\	.	8cc\	-kło	.
.	.	16a\	.	.	.	.
.	.	16cc\	.	8a/	za-	.
.	.	16a\JJ	.	.	.	.
=100	=100	=100	=100	=100	=100	=100
!	!	!	!	!LO:N:vis=4.	!	!
4.GG 4.GGG/	4.ee 4.e/	16e\LL	.	[<4g/	-mie-	.
.	.	16g\	.	.	.	.
.	.	16cc\	.	.	.	.
.	.	16g\	.	.	.	.
.	.	16cc\	.	8g/]	.	.
.	.	16g\JJ	.	.	.	.
4.BB-X 4.BBB-X/)	4.g 4.G/	16G\LL	.	4cc\	-nia?	.
.	.	16c\	.	.	.	.
.	.	16e\	.	.	.	.
.	.	16c\	.	.	.	.
.	.	16e\	.	8e/	Co	.
.	.	16c\JJ)	.	.	.	.
=101	=101	=101	=101	=101	=101	=101
(<4.AA 4.AAA/	(>4.cc 4.c/	16c\LL	.	8f#X/L	nie-	.
.	.	16d\	.	.	.	.
.	.	16f#X\	.	8a/J	.	.
.	.	16d\	.	.	.	.
.	.	16f#\	.	8b\	-bo	.
.	.	16d\JJ	.	.	.	.
4.AA-X 4.AAA-X/)	4.f# 4.F#X/	16F#\LL	.	8cc\	w piek-	.
.	.	16c\	.	.	.	.
.	.	16d\	.	8b\	-ło	.
.	.	16c\	.	.	.	.
.	.	16d\	.	8cc\	za-	.
.	.	16c\JJ)	.	.	.	.
!!LO:LB:g=original
=102	=102	=102	=102	=102	=102	=102
!	!	!	!	!LO:N:vis=4	!	!
2.GG 2.GGG/	(>4.a 4.A/	16A\LL	.	[>4.ff^>\	-mie-	.
.	.	16d\	.	.	.	.
.	.	16fn\	.	.	.	.
.	.	16d\	.	.	.	.
.	.	16f\	.	.	.	.
.	.	16d\JJ	.	.	.	.
!	!LO:TX:b:i:t=riten.	!	!	!LO:TX:a:i:t=riten.	!	!
.	4g 4G/	16G\LL	.	8ff\L]	.	.
.	.	16f\	.	.	.	.
.	.	16B\	.	8ee\	.	.
.	.	16G\	.	.	.	.
.	8B/)	16F\	.	8dd\J	.	.
.	.	16G\JJ	.	.	.	.
*	*v	*v	*	*	*	*
=103||	=103||	=103||	=103||	=103||	=103||
*M2/4	*M2/4	*	*M2/4	*	*
*	*^	*	*	*	*
!	!LO:N:vis=2	!	!	!LO:TX:a:t=Tempo I.	!	!
(<2GG#X 2GGG#X/	(>16E/LL	2E\	.	4cc\	-nia?	.
.	16c/	.	>	.	.	.
.	16d/	.	.	.	.	.
.	16e/JJ	.	.	.	.	.
.	16d/LL	.	.	4r	.	.
.	16c/	.	.	.	.	.
.	16B/	.	.	.	.	.
.	16d/JJ	.	.	.	.	.
=104	=104	=104	=104	=104	=104	=104
4AA 4AAA/	16c/LL	2c\	.	2r	.	.
.	16e/	.	.	.	.	.
.	16f/	.	.	.	.	.
.	16a/JJ	.	.	.	.	.
4AA#X 4AAA#X/)	16g/LL	.	.	.	.	.
.	16f/	.	.	.	.	.
.	16e/	.	.	.	.	.
.	16g/JJ)	.	]	.	.	.
*	*v	*v	*	*	*	*
!!LO:PB:g=original
=105	=105	=105	=105	=105	=105
(<4BB 4BBB/	(>16d#XLL 16A/	pp	2r	.	.
.	16f#X/	.	.	.	.
.	16a/	.	.	.	.
.	16cc/JJ	.	.	.	.
4D#X 4DD#X/)	16b/LL	.	.	.	.
.	16a/	.	.	.	.
.	16g#X/	.	.	.	.
.	16a/JJ	.	.	.	.
=106	=106	=106	=106	=106	=106
*	*^	*	*	*	*
2E 2EE/	16g#X/LL	4ryy	>	2r	.	.
.	16f/	.	.	.	.	.
.	16d/	.	.	.	.	.
.	16B/JJ	.	.	.	.	.
!	!LO:TX:a:i:t=riten.	!	!	!	!	!
.	8.f/L	16f\LL	]	.	.	.
.	.	16A\	.	.	.	.
.	.	16G#X\	.	.	.	.
.	16d/Jk)	16d\JJ	.	.	.	.
=107	=107	=107	=107	=107	=107	=107
*^	*	*	*	*	*	*
!	!	!	!	!	!LO:TX:a:i:t=molto tranquillo	!	!LO:DY:a
(>4E/	[<2AA\	4c/	[<2A\	pp	4ee\	Pły-	pp
4G/	.	4e/	.	.	4a/	-nie	.
4F/	2AA\]	4.a 4.d/	4A\]	.	8b\	pły-	.
.	.	.	.	.	8cc\	-nie	.
4E/)	.	.	4d 4B\	.	8dd\	rok	.
.	.	8g#X/	.	.	8ee\	za	.
!!LO:LB:g=original
=108	=108	=108	=108	=108	=108	=108	=108
8E/L	[<2AA\	[>2a/	8c\L	.	8cc\	ro-	.
8qG/	.	.	8qe/	.	.	.	.
8F/	.	.	8d\	.	8b\	-kiem,	.
!	!	!	!	!	!	!	!LO:HP:a
8E/	.	.	8c\	.	8a/	Wał	<
8D/J	.	.	8f\J	.	8b\	w śród	.
=109	=109	=109	=109	=109	=109	=109	=109
8C/L	2AA\_<	2a/_>	8.e\L	.	8cc\L	wa-	.
8F/J	.	.	.	.	8dd\	.	.
.	.	.	16d\Jk	.	.	.	.
8E/L	.	.	16c\LL	.	8ee\J	.	.
.	.	.	16B\	.	.	.	.
8D#X/J	.	.	16A\	.	8ff\	-łów	[[
.	.	.	16B\JJ	.	.	.	.
=110	=110	=110	=110	=110	=110	=110	=110
!	!	!	!	!	!	!	!LO:HP:a
2E/	2AA\]	8.a/L]	2c\	.	2ee\	fal;	>]
.	.	32g/LL	.	.	.	.	.
.	.	32f/JJJ	.	.	.	.	.
.	.	8e/L	.	.	.	.	.
.	.	8e/J	.	.	.	.	.
*	*	*v	*v	*	*	*	*
=111	=111	=111	=111	=111	=111	=111
*	*	*	*	*^	*	*
.	.	.	.	.	(<4qqee/	.	.
8.E/L	[<2AA\	(>8aL 8A/	.	4.aa/	4aa 4ee\)	Gi-	.
.	.	8bJ 8B/	.	.	.	.	.
32G/LL	.	.	.	.	.	.	.
32F/JJJ	.	.	.	.	.	.	.
8E/L	.	8ccL 8c/	.	.	4a\	-nie	.
8G/J	.	8eeJ 8e/)	.	8a/	.	.	.
*	*	*	*	*v	*v	*	*
=112	=112	=112	=112	=112	=112	=112
*	*	*^	*	*	*	*
(>8F/L	2AA\]	(>8.bL 8.B/	2g#X\	.	8dd\	gi-	.
!	!	!	!	!	!	!	!LO:HP:a
8E/J	.	.	.	.	8cc\	-nie	<
.	.	16ccJk 16c/	.	.	.	.	.
8F/L	.	8ddL 8d/	.	.	8b\	krok	.
8D'>/J)	.	8bJ 8B/)	.	.	8ff\	za	[[
!!LO:LB:g=original
=113	=113	=113	=113	=113	=113	=113	=113
8E/L	[<2AA\	(>8.ccL 8.c/	[4a\	.	8ee\	kro-	.
8F/	.	.	.	.	16cc\LL	-kiem,	.
.	.	16ddJk 16d/	.	.	16b\JJ	.	.
8C/	.	8eeL 8a] 8e/)	8ryy	.	8a/	A	.
8D/J	.	(<16aL 16A/	8f\	.	8f/	za	.
.	.	16bJJ 16B/	.	.	.	.	.
*	*	*v	*v	*	*	*	*
=114	=114	=114	=114	=114	=114	=114
8E/	2AA\]	8.ccL 8.e 8.c/)	.	4e/	ża-	.
(>4A/	.	.	.	.	.	.
!	!	!	!	!	!	!LO:DY:a
.	.	(<16ddJk 16f/	.	.	.	pp
.	.	8ccL 8e/	.	8f#X/L	-lem	.
8B/)	.	8g#XJ 8d/)	.	8g#X/J	.	.
*v	*v	*	*	*	*	*
=115	=115	=115	=115	=115	=115
.	16qqc#X/LL	<	.	.	.
.	16qqa/JJ	.	.	.	.
16r	(>4ee\	.	2a/	żal.	.
(>16Gn\LL	.	.	.	.	.
16A\	.	.	.	.	.
16e\JJ)	.	.	.	.	.
16r	4a/)	.	.	.	.
(>16d\LL	.	.	.	.	.
16A\	.	.	.	.	.
16F#X\JJ)	.	[[	.	.	.
=116	=116	=116	=116	=116	=116
16r	(>8b\L	.	2r	.	.
(>16Fn\LL	.	.	.	.	.
16A\	8cc\	.	.	.	.
16d\JJ)	.	.	.	.	.
16r	8dd\	<	.	.	.
(>16d\LL	.	.	.	.	.
16G#X\	8ee\J	.	.	.	.
16E\JJ)	.	.	.	.	.
=117	=117	=117	=117	=117	=117
16r	8a\L	.	2r	.	.
(>16E-X\LL	.	.	.	.	.
16Gn\	8b\	.	.	.	.
16c\JJ)	.	.	.	.	.
16r	8cc\	.	.	.	.
(>16c\LL	.	.	.	.	.
16F#X\	8dd\J)	[[	.	.	.
16D\JJ)	.	.	.	.	.
!!LO:LB:g=original
=118	=118	=118	=118	=118	=118
!	!LO:TX:b:i:t=espress.	!	!	!	!
16r	(<8.g/L	.	2r	.	.
16D-X\LL	.	.	.	.	.
16Fn\	.	.	.	.	.
16B-X\JJ	16fn/Jk	.	.	.	.
16r	8e/L)	.	.	.	.
16B-\LL	.	.	.	.	.
16G\	8e/J	<	.	.	.
16C\JJ	.	.	.	.	.
=119	=119	=119	=119	=119	=119
16r	4a/	.	2r	.	.
16FF\LL	.	.	.	.	.
16C\	.	.	.	.	.
16A\JJ	.	.	.	.	.
16r	8d#X/L	[	.	.	.
16B\LL	.	>	.	.	.
16A\	(<8d#/J	.	.	.	.
16BB\JJ	.	]]	.	.	.
=120	=120	=120	=120	=120	=120
!	!LO:TX:b:i:t=morendo	!	!	!	!
16r	4f/	.	2r	.	.
(>16EE\LL	.	.	.	.	.
16BB\	.	.	.	.	.
16D\JJ)	.	.	.	.	.
16r	4G#X/)	.	.	.	.
(>16E\LL	.	.	.	.	.
16D\	.	.	.	.	.
16EE\JJ)	.	.	.	.	.
=121	=121	=121	=121	=121	=121
!	!	!LO:DY:a	!	!	!
!	!	!LO:HP:a	!	!	!
16r	4e: 4c#X: 4A: 4E:/	pp <	2r	.	.
!LO:TX:b:i:t=Lento	!	!	!	!	!
(<16AAA/LL	.	.	.	.	.
16EE/	.	.	.	.	.
16AA/JJ)	.	.	.	.	.
16r	4e: 4c#: 4G#X: 4E:/	[	.	.	.
(<16C#X/LL	.	.	.	.	.
16GG#X/	.	.	.	.	.
16CC#X/JJ)	.	.	.	.	.
=122	=122	=122	=122	=122	=122
*^	*	*	*	*	*
*	*^	*	*	*	*	*
!	!	!	!	!LO:HP:a	!	!	!
16r	8ryy	16ryy	2e: 2c#X: 2A: 2E:/	>	2r	.	.
16AAA/LL	.	N[<8AAA\	.	.	.	.	.
16EE/	[<8EE\	.	.	.	.	.	.
[>16AA/JJ	.	16ryy	.	.	.	.	.
4AA/] 4EE/] 4AAA/N]	4ryy	4ryy	.	]	.	.	.
*v	*v	*v	*	*	*	*	*
==	==	==	==	==	==
*-	*-	*-	*-	*-	*-
!!!system-decoration: s1{(s2,s3)}
!!!RDF**kern: N = linked
!!!RDF**dynam: < = "cresc.", 'fontstyle="italic"
!!!RDF**dynam: > = "dim.", 'fontstyle="italic"
!!!RDF**kern: > = above
!!!RDF**kern: < = below
!!!ENC: Filip Voros
!!!END: 2022-03-19
!!!EED: Antoni Szymański
!!!EEV: 2022-03-22
